X: 82
T: Ships Are Sailing
M: C|
L: 1/8
B: NEFR #82
Z: 2013 John Chambers <jc:trillian.mit.edu>
R: reel
K: EDor
|:\
"Em"Be ed Bc dB | "D"A2 FD AD FD | "Em"E^D EF GF GA | Be ef gf ed |
"Em"Be ed Bc dB | "D"AD (3FED AD FD | "Em"E^D EF GF GA | "D"Bd e^d "Em"e4 :|
|:\
"Em"gf ga bg eg | "D"fe fg af df | "Em"gf ga bg eg | "D"af df "Em"e2 ef |
"Em"gf ga bg eg | "D"fe fg af df | "G"g2 bg "D"f2 af | "Em"ed ef gf ed :|
